icons/svgs/merge-solid.svg

<svg width="24" height="24" viewBox="0 0 24 24" fill="none" xmlns="http://www.w3.org/2000/svg">
<path d="M3.25 4.5H7.03906C8.17188 4.5 9.26562 5.04688 9.96875 5.90625L13.8359 10.7891H17V9.53906C17 9.03125 17.2734 8.5625 17.7422 8.36719C18.2109 8.17188 18.7578 8.28906 19.1094 8.64062L21.6094 11.1406C21.8438 11.375 22 11.6875 22 12.0391C22 12.3516 21.8438 12.6641 21.6094 12.8984L19.1094 15.3984C18.7578 15.75 18.2109 15.8672 17.7422 15.6719C17.2734 15.4766 17 15.0078 17 14.5V13.25H13.8359L9.96875 18.0938C9.22656 18.9922 8.17188 19.5 7.03906 19.5H3.25C2.54688 19.5 2 18.9531 2 18.25C2 17.5859 2.54688 17 3.25 17H7.03906C7.39062 17 7.78125 16.8438 8.01562 16.5312L11.6484 12L8.01562 7.46875C7.78125 7.19531 7.39062 7 7.03906 7H3.25C2.54688 7 2 6.45312 2 5.75C2 5.08594 2.54688 4.5 3.25 4.5Z" fill="black"/>
</svg>

<svg xmlns="http://www.w3.org/2000/svg" width="24" height="24" fill="currentColor" class="icon-merge-solid" viewBox="0 0 24 24">
  <mask id="a" width="20" height="16" x="2" y="4" maskUnits="userSpaceOnUse" style="mask-type:alpha">
    <path d="M3.25 4.5h3.79c1.132 0 2.226.547 2.929 1.406l3.867 4.883H17V9.54c0-.508.273-.976.742-1.172a1.26 1.26 0 0 1 1.367.274l2.5 2.5c.235.234.391.547.391.898 0 .313-.156.625-.39.86l-2.5 2.5a1.26 1.26 0 0 1-1.368.273c-.469-.195-.742-.664-.742-1.172v-1.25h-3.164l-3.867 4.844c-.742.898-1.797 1.406-2.93 1.406H3.25c-.703 0-1.25-.547-1.25-1.25 0-.664.547-1.25 1.25-1.25h3.79c.35 0 .741-.156.976-.469L11.648 12 8.016 7.469C7.78 7.195 7.39 7 7.039 7H3.25C2.547 7 2 6.453 2 5.75c0-.664.547-1.25 1.25-1.25"/>
  </mask>
  <g mask="url(#a)">
    <path d="M0 0h24v24H0z"/>
  </g>
</svg>
